X:278
T:
R:polska
S:Efter Elisabet Olofsdotters föresjungning (Flors i Burs).
O:Gotland, Burs
M:3/4
L:1/16
K:G
G3B B2d2 e2d2|B2Bc d2{e}dc c2B2|G3B B2d2 e2d2|B2Bc d2{e}dc c2B2|
G3B A2A2 A2GA|G3B A2A2 A2GA|Bdef g2d2 e2c2|B3A A4 G4:|
K:D
A2BA ^G2A2 B2A2|A2df a2fa g2f2|A2BA ^G2A2 B2A2|A2FD AGFE E2D2|
d3c B2B2 B2cd|A3G F2F2 F2GA|d3c B2B2 B2cd|A3G F2F2 F2GA|
d3c B2e2 c2B2|A2Bc c4 d4:|

